images_sukapura_svg/cmd/32/setborderstyle.svg

<svg viewBox="0 0 32 32" xmlns="http://www.w3.org/2000/svg"><path d="m3 27h26v2h-26z" fill="#ff9500"/><path d="m5 5v20h22v-20z" fill="#fff"/><path d="m15 5v8h-10v2h10v10h2v-10h10v-2h-10v-8z" fill="#bababa"/><path d="m4 3c-.554 0-1 .446-1 1v21h2v-10-2-8h10 2 10v8 2 10h2v-21c0-.554-.446-1-1-1z" fill="#808080"/></svg>

<?xml version="1.0" encoding="UTF-8" standalone="no"?>
<svg
   xmlns:dc="http://purl.org/dc/elements/1.1/"
   xmlns:cc="http://creativecommons.org/ns#"
   xmlns:rdf="http://www.w3.org/1999/02/22-rdf-syntax-ns#"
   xmlns:svg="http://www.w3.org/2000/svg"
   xmlns="http://www.w3.org/2000/svg"
   xmlns:sodipodi="http://sodipodi.sourceforge.net/DTD/sodipodi-0.dtd"
   xmlns:inkscape="http://www.inkscape.org/namespaces/inkscape"
   viewBox="0 0 32 32"
   version="1.1"
   id="svg8"
   sodipodi:docname="setborderstyle.svg"
   inkscape:version="0.92.3 (unknown)"
   inkscape:export-filename="/home/rizmut/Dokumen/Rizmut/Github/libreoffice-style-sukapura/images_sukapura/cmd/32/setborderstyle.png"
   inkscape:export-xdpi="96"
   inkscape:export-ydpi="96">
  <metadata
     id="metadata14">
    <rdf:RDF>
      <cc:Work
         rdf:about="">
        <dc:format>image/svg+xml</dc:format>
        <dc:type
           rdf:resource="http://purl.org/dc/dcmitype/StillImage" />
        <dc:title></dc:title>
      </cc:Work>
    </rdf:RDF>
  </metadata>
  <defs
     id="defs12" />
  <sodipodi:namedview
     pagecolor="#ffffff"
     bordercolor="#666666"
     borderopacity="1"
     objecttolerance="10"
     gridtolerance="10"
     guidetolerance="10"
     inkscape:pageopacity="0"
     inkscape:pageshadow="2"
     inkscape:window-width="1366"
     inkscape:window-height="699"
     id="namedview10"
     showgrid="true"
     inkscape:zoom="7.375"
     inkscape:cx="-1.4237288"
     inkscape:cy="16"
     inkscape:window-x="0"
     inkscape:window-y="0"
     inkscape:window-maximized="1"
     inkscape:current-layer="svg8">
    <inkscape:grid
       type="xygrid"
       id="grid821" />
  </sodipodi:namedview>
  <path
     d="m3 27h26v2h-26z"
     fill="#eac282"
     id="path2"
     style="fill:#ff9500;fill-opacity:1" />
  <path
     d="m5 5v20h22v-20z"
     fill="#fff"
     id="path4" />
  <path
     d="M 15 5 L 15 13 L 5 13 L 5 15 L 15 15 L 15 25 L 17 25 L 17 15 L 27 15 L 27 13 L 17 13 L 17 5 L 15 5 z "
     id="path6"
     style="fill:#bababa;fill-opacity:1" />
  <path
     d="M 4 3 C 3.446 3 3 3.446 3 4 L 3 25 L 5 25 L 5 15 L 5 13 L 5 5 L 15 5 L 17 5 L 27 5 L 27 13 L 27 15 L 27 25 L 29 25 L 29 4 C 29 3.446 28.554 3 28 3 L 4 3 z "
     id="path839"
     style="fill:#808080;fill-opacity:1" />
</svg>
